X: 27791
T: Morris Off
R: polka
M: 2/4
K: Dmajor
|f/g/aaa|a2ag|fdde|c2A2|
f/g/aaa|a2ag|fdde|d2d2||
f/g/aaa|a2ag|fdde|c2A2|
f/g/aaa|a2ag|fdde|d3f||
fdde|fdge|fdde|c2Af|
fdde|fdge|fdde|d3f||
fdde|fdge|fdde|c2Af|
fdde|fdge|fdde|d4||

